www/assets/icons/shutter_speed.svg

<svg xmlns="http://www.w3.org/2000/svg" width="24" height="24" viewBox="0 0 24 24" fill='currentColor'><path d="M15 1.5H9v2h6zm4.03 6.39 1.42-1.42c-.43-.51-.9-.99-1.41-1.41l-1.42 1.42A8.96 8.96 0 0 0 12 4.5a9 9 0 0 0-9 9c0 4.97 4.02 9 9 9a8.994 8.994 0 0 0 7.03-14.61M12 20.5c-3.87 0-7-3.13-7-7s3.13-7 7-7 7 3.13 7 7-3.13 7-7 7m-.32-5H6.35a6 6 0 0 0 3.41 3.56L9.65 19zm5.97-4a6 6 0 0 0-3.34-3.54l-2.05 3.54zm-7.04 7.83c.45.11.91.17 1.39.17 1.34 0 2.57-.45 3.57-1.19l-2.11-3.9zM7.55 9.49A5.97 5.97 0 0 0 6 13.5c0 .34.04.67.09 1h4.72zm8.79 8.14A5.94 5.94 0 0 0 18 13.5c0-.34-.04-.67-.09-1h-4.34zm-3.01-9.98c-.43-.09-.87-.15-1.33-.15-1.4 0-2.69.49-3.71 1.29l2.32 3.56z"/></svg>

<svg width="24" height="24" viewBox="0 0 24 24" xmlns="http://www.w3.org/2000/svg" fill='currentColor'><path d="M15 1.5H9V3.5H15V1.5ZM19.03 7.89L20.45 6.47C20.02 5.96 19.55 5.48 19.04 5.06L17.62 6.48C16.07 5.24 14.12 4.5 12 4.5C7.03 4.5 3 8.53 3 13.5C3 18.47 7.02 22.5 12 22.5C16.98 22.5 21 18.47 21 13.5C21 11.38 20.26 9.43 19.03 7.89ZM12 20.5C8.13 20.5 5 17.37 5 13.5C5 9.63 8.13 6.5 12 6.5C15.87 6.5 19 9.63 19 13.5C19 17.37 15.87 20.5 12 20.5ZM11.68 15.5H6.35C6.92 17.12 8.17 18.42 9.76 19.06L9.65 19L11.68 15.5ZM17.65 11.5C17.08 9.9 15.87 8.61 14.31 7.96L12.26 11.5H17.65ZM10.61 19.33C11.06 19.44 11.52 19.5 12 19.5C13.34 19.5 14.57 19.05 15.57 18.31L13.46 14.41L10.61 19.33ZM7.55 9.49C6.59 10.55 6 11.96 6 13.5C6 13.84 6.04 14.17 6.09 14.5H10.81L7.55 9.49ZM16.34 17.63C17.37 16.56 18 15.1 18 13.5C18 13.16 17.96 12.83 17.91 12.5H13.57L16.34 17.63ZM13.33 7.65C12.9 7.56 12.46 7.5 12 7.5C10.6 7.5 9.31 7.99 8.29 8.79L10.61 12.35L13.33 7.65Z"/></svg>
